icon-themes/breeze_svg/cmd/32/testmode.svg

<svg viewBox="0 0 32 32" xmlns="http://www.w3.org/2000/svg"><path d="m15 4v2.0507812c-1.9533.198336-3.805002.9672747-5.3242188 2.2109376l-1.453125-1.4550782-1.4160156 1.4160156 1.4550782 1.453125c-1.2401459 1.5203738-2.0056451 3.3719718-2.2011719 5.3242188h-2.0605469v2h2.0507812c.1983359 1.9533.9672746 3.805002 2.2109376 5.324219l-1.4550782 1.453125 1.4160156 1.414062 1.453125-1.453125c1.5203738 1.240146 3.3719718 2.005645 5.3242188 2.201172v2.060547h2v-2.050781c.335757-.03517.669518-.08732 1-.15625v-1.03125c-.655651.15401-1.326518.233937-2 .238281-2.432929.000006-4.762218-.984975-6.4570312-2.730469-1.6307966-1.679574-2.5429744-3.928491-2.5429688-6.269531-.0000057-2.432929.9849748-4.762217 2.7304688-6.4570312 1.6795742-1.6307967 3.9284912-2.5429745 6.2695312-2.5429688 2.432929-.0000057 4.762217.9849748 6.457031 2.7304688 1.630797 1.6795742 2.542975 3.9284912 2.542969 6.2695312-.0056.67363-.08686 1.344498-.242188 2h1.019532c.0709-.33038.125002-.664142.162109-1h2.060547v-2h-2.050781c-.198336-1.9533-.967275-3.805002-2.210938-5.3242188l1.455078-1.453125-1.416015-1.4160156-1.453125 1.4550782c-1.520374-1.2401459-3.371972-2.0056452-5.324219-2.2011719v-2.0605469zm-2 7.5v9l7-4.5zm9 5.5v9.085938l-3.792969-3.792969-.707031.707031 4 4 1 1 1-1 4-4-.707031-.707031-3.792969 3.792969v-9.085938z" fill="#4d4d4d"/></svg>

<svg xmlns="http://www.w3.org/2000/svg" viewBox="0 0 32 32">
 <path 
     style="fill:#4d4d4d" 
     d="M 15 4 L 15 6.0507812 A 10 10 0 0 0 9.6757812 8.2617188 L 8.2226562 6.8066406 L 6.8066406 8.2226562 L 8.2617188 9.6757812 A 10 10 0 0 0 6.0605469 15 L 4 15 L 4 17 L 6.0507812 17 A 10 10 0 0 0 8.2617188 22.324219 L 6.8066406 23.777344 L 8.2226562 25.191406 L 9.6757812 23.738281 A 10 10 0 0 0 15 25.939453 L 15 28 L 17 28 L 17 25.949219 A 10 10 0 0 0 18 25.792969 L 18 24.761719 A 9 9 0 0 1 16 25 A 9 9 0 0 1 9.5429688 22.269531 A 9 9 0 0 1 7 16 A 9 9 0 0 1 9.7304688 9.5429688 A 9 9 0 0 1 16 7 A 9 9 0 0 1 22.457031 9.7304688 A 9 9 0 0 1 25 16 A 9 9 0 0 1 24.757812 18 L 25.777344 18 A 10 10 0 0 0 25.939453 17 L 28 17 L 28 15 L 25.949219 15 A 10 10 0 0 0 23.738281 9.6757812 L 25.193359 8.2226562 L 23.777344 6.8066406 L 22.324219 8.2617188 A 10 10 0 0 0 17 6.0605469 L 17 4 L 15 4 z M 13 11.5 L 13 20.5 L 20 16 L 13 11.5 z M 22.5 17 L 22.5 26.085938 L 18.707031 22.292969 L 18 23 L 22 27 L 23 28 L 24 27 L 28 23 L 27.292969 22.292969 L 23.5 26.085938 L 23.5 17 L 22.5 17 z "
     />
</svg>
